; generated by PrusaSlicer 2.2.0+win64 on 2020-10-12 at 03:48:11 UTC

; 

; external perimeters extrusion width = 0.45mm
; perimeters extrusion width = 0.45mm
; infill extrusion width = 0.45mm
; solid infill extrusion width = 0.45mm
; top infill extrusion width = 0.40mm
; support material extrusion width = 0.40mm
; first layer extrusion width = 0.42mm

M73 P0 R215
M73 Q0 S217
M201 X1000 Y1000 Z1000 E5000 ; sets maximum accelerations, mm/sec^2
M203 X200 Y200 Z12 E120 ; sets maximum feedrates, mm/sec
M204 P1250 R1250 T1250 ; sets acceleration (P, T) and retract acceleration (R), mm/sec^2
M205 X8.00 Y8.00 Z0.40 E4.50 ; sets the jerk limits, mm/sec
M205 S0 T0 ; sets the minimum extruding and travel feed rate, mm/sec
M107
M862.3 P "MK3" ; printer model check
M862.1 P0.4 ; nozzle diameter check
M115 U3.8.1 ; tell printer latest fw version
G90 ; use absolute coordinates
M83 ; extruder relative mode
M104 S230 ; set extruder temp
M140 S85 ; set bed temp
M190 S85 ; wait for bed temp
M109 S230 ; wait for extruder temp
G28 W ; home all without mesh bed level
G80 ; mesh bed leveling
G1 Y-3.0 F1000.0 ; go outside print area
G92 E0.0
G1 X60.0 E9.0 F1000.0 ; intro line
M73 Q0 S217
M73 P0 R215
G1 X100.0 E12.5 F1000.0 ; intro line
G92 E0.0
M221 S95
G21 ; set units to millimeters
G90 ; use absolute coordinates
M83 ; use relative distances for extrusion
M900 K0.08 ; Filament gcode LA 1.5
M900 K45 ; Filament gcode LA 1.0
;BEFORE_LAYER_CHANGE
G92 E0.0
;0.4


G1 E-1.40000 F2100.00000
G1 Z0.200 F10800.000
G1 Z0.400
;AFTER_LAYER_CHANGE
;0.4
G1 Z0.600
G1 X69.787 Y55.881
G1 Z0.400
G1 E1.40000 F2100.00000
M204 S1000
G1 F1200.000
G1 X70.211 Y55.037 E0.05252
G1 X83.751 Y37.946 E1.21169
G1 X84.464 Y37.354 E0.05146
G1 X84.986 Y37.150 E0.03118
G1 X85.539 Y37.076 E0.03097
G1 X104.811 Y37.076 E1.07099
G1 X105.438 Y37.162 E0.03513
G1 X165.923 Y54.248 E3.49274
G1 X166.414 Y54.458 E0.02972
G1 X166.846 Y54.774 E0.02972
G1 X167.194 Y55.180 E0.02972
G1 X167.440 Y55.655 E0.02972
G1 X183.443 Y131.776 E4.32259
G1 X183.463 Y154.726 E1.27537
G1 X183.193 Y155.620 E0.05188
G1 X182.591 Y156.339 E0.05208
G1 X166.567 Y168.147 E1.10618
G1 X156.575 Y172.921 E0.61535
G1 X155.749 Y173.075 E0.04673
G1 X82.738 Y173.069 E4.05729
G1 X82.020 Y172.904 E0.04094
G1 X71.053 Y168.329 E0.66035
G1 X70.331 Y167.803 E0.04961
G1 X69.860 Y167.045 E0.04961
G1 X66.639 Y157.393 E0.56545
G1 X66.527 Y156.680 E0.04012
G1 X66.528 Y97.145 E3.30838
G1 X69.782 Y55.941 E2.29690
G1 F8640.000
G1 X70.211 Y55.037 E-0.23112
G1 X73.167 Y51.306 E-1.09888
G1 E-0.07000 F2100.00000
G1 Z0.600 F10800.000
G1 X80.891 Y50.852
G1 Z0.400
G1 E1.40000 F2100.00000
G1 F1200.000
G1 X80.891 Y56.094 E0.29132
G1 X81.559 Y56.094 E0.03714
G1 X81.559 Y51.002 E0.28296
G1 X82.228 Y51.002 E0.03714
G1 X82.228 Y56.094 E0.28296
G1 X82.896 Y56.094 E0.03714
G1 X82.896 Y48.684 E0.41180
G1 X83.564 Y48.684 E0.03714
G1 X83.564 Y56.094 E0.41180
G1 X84.233 Y56.094 E0.03714
G1 X84.233 Y48.684 E0.41180
G1 X84.901 Y48.684 E0.03714
G1 X84.901 Y56.094 E0.41180
G1 X85.569 Y56.094 E0.03714
G1 X85.569 Y39.410 E0.92716
G1 X86.238 Y39.410 E0.03714
G1 X86.238 Y56.094 E0.92716
G1 X86.906 Y56.094 E0.03714
G1 X86.906 Y39.410 E0.92716
G1 X87.574 Y39.410 E0.03714
G1 X87.574 Y56.094 E0.92716
G1 X88.243 Y56.094 E0.03714
G1 X88.243 Y39.410 E0.92716
G1 X88.911 Y39.410 E0.03714
G1 X88.911 Y56.094 E0.92716
G1 X89.579 Y56.094 E0.03714
G1 X89.579 Y39.410 E0.92716
G1 X90.247 Y39.410 E0.03714
G1 X90.247 Y56.094 E0.92716
G1 X90.916 Y56.094 E0.03714
G1 X90.916 Y39.410 E0.92716
G1 X91.584 Y39.410 E0.03714
G1 X91.584 Y56.094 E0.92716
G1 X92.252 Y56.094 E0.03714
G1 X92.252 Y39.410 E0.92716
G1 X92.921 Y39.410 E0.03714
G1 X92.921 Y56.094 E0.92716
G1 X93.589 Y56.094 E0.03714
G1 X93.589 Y39.410 E0.92716
G1 X94.257 Y39.410 E0.03714
G1 X94.257 Y56.094 E0.92716
G1 X94.926 Y56.094 E0.03714
G1 X94.926 Y39.410 E0.92716
G1 X95.594 Y39.410 E0.03714
G1 X95.594 Y56.094 E0.92716
G1 X96.262 Y56.094 E0.03714
G1 X96.262 Y39.410 E0.92716
G1 X96.931 Y39.410 E0.03714
G1 X96.931 Y56.094 E0.92716
G1 X97.599 Y56.094 E0.03714
G1 X97.599 Y39.410 E0.92716
G1 X98.267 Y39.410 E0.03714
G1 X98.267 Y56.094 E0.92716
G1 X98.936 Y56.094 E0.03714
G1 X98.936 Y39.410 E0.92716
G1 X99.604 Y39.410 E0.03714
G1 X99.604 Y56.094 E0.92716
G1 X100.272 Y56.094 E0.03714
G1 X100.272 Y39.410 E0.92716
G1 X100.941 Y39.410 E0.03714
G1 X100.941 Y56.094 E0.92716
G1 X101.609 Y56.094 E0.03714
G1 X101.609 Y39.410 E0.92716
G1 X102.277 Y39.410 E0.03714
G1 X102.277 Y56.094 E0.92716
G1 X102.946 Y56.094 E0.03714
G1 X102.946 Y39.410 E0.92716
G1 X103.614 Y39.410 E0.03714
G1 X103.614 Y56.094 E0.92716
G1 X104.282 Y56.094 E0.03714
G1 X104.282 Y39.410 E0.92716
G1 X104.808 Y39.410 E0.02920
G1 X104.808 Y48.684 E0.51535
G1 X104.950 Y48.684 E0.00794
G1 X104.950 Y56.094 E0.41180
G1 X105.619 Y56.094 E0.03714
G1 X105.619 Y48.684 E0.41180
G1 X106.287 Y48.684 E0.03714
G1 X106.287 Y56.094 E0.41180
G1 X106.955 Y56.094 E0.03714
G1 X106.955 Y48.684 E0.41180
G1 X107.126 Y48.684 E0.00948
G1 X107.126 Y51.002 E0.12884
G1 X107.624 Y51.002 E0.02766
G1 X107.624 Y56.094 E0.28296
G1 X108.292 Y56.094 E0.03714
G1 X108.292 Y51.002 E0.28296
G1 X108.960 Y51.002 E0.03714
G1 X108.960 Y56.244 E0.29132
G1 F8640.000
G1 X108.960 Y51.002 E-1.21046
G1 X108.443 Y51.002 E-0.11954
G1 E-0.07000 F2100.00000
G1 Z0.600 F10800.000
G1 X68.861 Y97.221
G1 Z0.400
G1 E1.40000 F2100.00000
G1 F1200.000
G1 X68.861 Y156.680 E3.30418
M73 Q0 S216
M73 P0 R214
G1 X69.530 Y156.680 E0.03714
G1 X69.530 Y97.371 E3.29583
G1 X70.198 Y97.371 E0.03714
G1 X70.198 Y156.680 E3.29583
G1 X70.866 Y156.680 E0.03714
G1 X70.866 Y97.371 E3.29583
G1 X71.535 Y97.371 E0.03714
G1 X71.535 Y156.830 E3.30418
G1 F8640.000
G1 X71.535 Y151.070 E-1.33000
G1 E-0.07000 F2100.00000
G1 Z0.600 F10800.000
G1 X82.896 Y170.741
G1 Z0.400
G1 E1.40000 F2100.00000
G1 F1200.000
G1 X82.896 Y166.606 E0.22976
G1 X83.564 Y166.606 E0.03714
G1 X83.564 Y170.590 E0.22140
G1 X84.233 Y170.590 E0.03714
G1 X84.233 Y166.606 E0.22140
G1 X84.901 Y166.606 E0.03714
G1 X84.901 Y170.590 E0.22140
G1 X85.569 Y170.590 E0.03714
G1 X85.569 Y166.606 E0.22140
G1 X86.238 Y166.606 E0.03714
G1 X86.238 Y170.590 E0.22140
G1 X86.906 Y170.590 E0.03714
G1 X86.906 Y166.606 E0.22140
G1 X87.574 Y166.606 E0.03714
G1 X87.574 Y170.590 E0.22140
G1 X88.243 Y170.590 E0.03714
G1 X88.243 Y166.606 E0.22140
G1 X88.911 Y166.606 E0.03714
G1 X88.911 Y170.590 E0.22140
G1 X89.579 Y170.590 E0.03714
G1 X89.579 Y166.606 E0.22140
G1 X90.247 Y166.606 E0.03714
G1 X90.247 Y170.590 E0.22140
G1 X90.916 Y170.590 E0.03714
G1 X90.916 Y166.606 E0.22140
G1 X91.584 Y166.606 E0.03714
G1 X91.584 Y170.590 E0.22140
G1 X92.252 Y170.590 E0.03714
G1 X92.252 Y166.606 E0.22140
G1 X92.921 Y166.606 E0.03714
G1 X92.921 Y170.590 E0.22140
G1 X93.589 Y170.590 E0.03714
G1 X93.589 Y166.606 E0.22140
G1 X94.257 Y166.606 E0.03714
G1 X94.257 Y170.590 E0.22140
G1 X94.926 Y170.590 E0.03714
G1 X94.926 Y166.606 E0.22140
G1 X95.594 Y166.606 E0.03714
G1 X95.594 Y170.590 E0.22140
G1 X96.262 Y170.590 E0.03714
G1 X96.262 Y166.606 E0.22140
G1 X96.931 Y166.606 E0.03714
G1 X96.931 Y170.590 E0.22140
G1 X97.599 Y170.590 E0.03714
G1 X97.599 Y166.606 E0.22140
G1 X98.267 Y166.606 E0.03714
G1 X98.267 Y170.590 E0.22140
G1 X98.936 Y170.590 E0.03714
G1 X98.936 Y166.606 E0.22140
G1 X99.604 Y166.606 E0.03714
G1 X99.604 Y170.590 E0.22140
G1 X100.272 Y170.590 E0.03714
G1 X100.272 Y166.606 E0.22140
G1 X100.941 Y166.606 E0.03714
G1 X100.941 Y170.590 E0.22140
G1 X101.609 Y170.590 E0.03714
G1 X101.609 Y166.606 E0.22140
G1 X102.277 Y166.606 E0.03714
G1 X102.277 Y170.590 E0.22140
G1 X102.946 Y170.590 E0.03714
G1 X102.946 Y166.606 E0.22140
G1 X103.614 Y166.606 E0.03714
G1 X103.614 Y170.590 E0.22140
G1 X104.282 Y170.590 E0.03714
G1 X104.282 Y166.606 E0.22140
G1 X104.950 Y166.606 E0.03714
G1 X104.950 Y170.590 E0.22140
G1 X105.619 Y170.590 E0.03714
G1 X105.619 Y166.606 E0.22140
G1 X106.287 Y166.606 E0.03714
G1 X106.287 Y170.590 E0.22140
G1 X106.955 Y170.590 E0.03714
G1 X106.955 Y166.606 E0.22140
G1 X107.624 Y166.606 E0.03714
G1 X107.624 Y170.590 E0.22140
G1 X108.292 Y170.590 E0.03714
G1 X108.292 Y166.606 E0.22140
G1 X108.960 Y166.606 E0.03714
G1 X108.960 Y170.590 E0.22140
G1 X109.629 Y170.590 E0.03714
G1 X109.629 Y166.606 E0.22140
G1 X110.297 Y166.606 E0.03714
G1 X110.297 Y170.590 E0.22140
G1 X110.965 Y170.590 E0.03714
G1 X110.965 Y166.606 E0.22140
G1 X111.634 Y166.606 E0.03714
G1 X111.634 Y170.590 E0.22140
G1 X112.302 Y170.590 E0.03714
G1 X112.302 Y166.606 E0.22140
G1 X112.970 Y166.606 E0.03714
G1 X112.970 Y170.590 E0.22140
G1 X113.639 Y170.590 E0.03714
G1 X113.639 Y166.606 E0.22140
G1 X114.307 Y166.606 E0.03714
G1 X114.307 Y170.590 E0.22140
G1 X114.975 Y170.590 E0.03714
G1 X114.975 Y166.606 E0.22140
G1 X115.644 Y166.606 E0.03714
G1 X115.644 Y170.590 E0.22140
G1 X116.312 Y170.590 E0.03714
G1 X116.312 Y166.606 E0.22140
G1 X116.980 Y166.606 E0.03714
G1 X116.980 Y170.590 E0.22140
G1 X117.648 Y170.590 E0.03714
G1 X117.648 Y166.606 E0.22140
G1 X118.317 Y166.606 E0.03714
G1 X118.317 Y170.590 E0.22140
G1 X118.985 Y170.590 E0.03714
G1 X118.985 Y166.606 E0.22140
G1 X119.653 Y166.606 E0.03714
G1 X119.653 Y170.590 E0.22140
G1 X120.322 Y170.590 E0.03714
G1 X120.322 Y166.606 E0.22140
G1 X120.990 Y166.606 E0.03714
G1 X120.990 Y170.590 E0.22140
G1 X121.658 Y170.590 E0.03714
G1 X121.658 Y166.606 E0.22140
G1 X122.327 Y166.606 E0.03714
G1 X122.327 Y170.590 E0.22140
G1 X122.995 Y170.590 E0.03714
G1 X122.995 Y166.606 E0.22140
G1 X123.663 Y166.606 E0.03714
G1 X123.663 Y170.590 E0.22140
G1 X124.332 Y170.590 E0.03714
G1 X124.332 Y166.606 E0.22140
G1 X125.000 Y166.606 E0.03714
G1 X125.000 Y170.590 E0.22140
G1 X125.668 Y170.590 E0.03714
G1 X125.668 Y166.606 E0.22140
G1 X126.337 Y166.606 E0.03714
G1 X126.337 Y170.590 E0.22140
G1 X127.005 Y170.590 E0.03714
G1 X127.005 Y166.606 E0.22140
G1 X127.673 Y166.606 E0.03714
G1 X127.673 Y170.590 E0.22140
G1 X128.342 Y170.590 E0.03714
G1 X128.342 Y166.606 E0.22140
G1 X129.010 Y166.606 E0.03714
G1 X129.010 Y170.590 E0.22140
G1 X129.678 Y170.590 E0.03714
G1 X129.678 Y166.606 E0.22140
G1 X130.347 Y166.606 E0.03714
G1 X130.347 Y170.590 E0.22140
G1 X131.015 Y170.590 E0.03714
G1 X131.015 Y166.606 E0.22140
G1 X131.683 Y166.606 E0.03714
G1 X131.683 Y170.590 E0.22140
G1 X132.351 Y170.590 E0.03714
G1 X132.351 Y166.606 E0.22140
G1 X133.020 Y166.606 E0.03714
G1 X133.020 Y170.590 E0.22140
G1 X133.688 Y170.590 E0.03714
G1 X133.688 Y166.606 E0.22140
G1 X134.356 Y166.606 E0.03714
G1 X134.356 Y170.590 E0.22140
G1 X135.025 Y170.590 E0.03714
G1 X135.025 Y166.606 E0.22140
G1 X135.693 Y166.606 E0.03714
G1 X135.693 Y170.590 E0.22140
G1 X136.361 Y170.590 E0.03714
G1 X136.361 Y166.606 E0.22140
G1 X137.030 Y166.606 E0.03714
G1 X137.030 Y170.590 E0.22140
G1 X137.698 Y170.590 E0.03714
G1 X137.698 Y166.606 E0.22140
G1 X138.366 Y166.606 E0.03714
G1 X138.366 Y170.590 E0.22140
G1 X139.035 Y170.590 E0.03714
G1 X139.035 Y166.606 E0.22140
G1 X139.703 Y166.606 E0.03714
G1 X139.703 Y170.590 E0.22140
G1 X140.371 Y170.590 E0.03714
G1 X140.371 Y166.606 E0.22140
G1 X141.040 Y166.606 E0.03714
G1 X141.040 Y170.590 E0.22140
G1 X141.708 Y170.590 E0.03714
G1 X141.708 Y166.606 E0.22140
G1 X142.376 Y166.606 E0.03714
G1 X142.376 Y170.590 E0.22140
G1 X143.045 Y170.590 E0.03714
G1 X143.045 Y166.606 E0.22140
G1 X143.713 Y166.606 E0.03714
G1 X143.713 Y170.590 E0.22140
G1 X144.381 Y170.590 E0.03714
G1 X144.381 Y166.606 E0.22140
G1 X145.050 Y166.606 E0.03714
G1 X145.050 Y170.590 E0.22140
G1 X145.718 Y170.590 E0.03714
G1 X145.718 Y166.606 E0.22140
G1 X146.386 Y166.606 E0.03714
G1 X146.386 Y170.590 E0.22140
G1 X147.054 Y170.590 E0.03714
G1 X147.054 Y166.606 E0.22140
G1 X147.723 Y166.606 E0.03714
G1 X147.723 Y170.590 E0.22140
G1 X148.391 Y170.590 E0.03714
G1 X148.391 Y166.606 E0.22140
G1 X149.059 Y166.606 E0.03714
G1 X149.059 Y170.590 E0.22140
G1 X149.728 Y170.590 E0.03714
G1 X149.728 Y166.606 E0.22140
G1 X150.396 Y166.606 E0.03714
G1 X150.396 Y170.590 E0.22140
G1 X151.064 Y170.590 E0.03714
G1 X151.064 Y166.606 E0.22140
G1 X151.733 Y166.606 E0.03714
G1 X151.733 Y170.590 E0.22140
G1 X152.401 Y170.590 E0.03714
G1 X152.401 Y166.606 E0.22140
G1 X153.069 Y166.606 E0.03714
G1 X153.069 Y170.590 E0.22140
G1 X153.738 Y170.590 E0.03714
G1 X153.738 Y166.606 E0.22140
G1 X154.406 Y166.606 E0.03714
G1 X154.406 Y170.590 E0.22140
G1 X155.074 Y170.590 E0.03714
G1 X155.074 Y166.606 E0.22140
G1 X155.743 Y166.606 E0.03714
G1 X155.743 Y170.741 E0.22976
G1 F8640.000
G1 X155.743 Y166.606 E-0.95467
G1 X155.074 Y166.606 E-0.15432
G1 X155.074 Y167.563 E-0.22101
G1 E-0.07000 F2100.00000
G1 Z0.600 F10800.000
G1 X165.767 Y159.148
G1 Z0.400
G1 E1.40000 F2100.00000
G1 F1200.000
G1 X165.767 Y108.963 E2.78883
G1 X166.436 Y108.963 E0.03714
G1 X166.436 Y158.998 E2.78047
G1 X167.104 Y158.998 E0.03714
G1 X167.104 Y108.963 E2.78047
G1 X167.772 Y108.963 E0.03714
G1 X167.772 Y158.998 E2.78047
G1 X168.441 Y158.998 E0.03714
G1 X168.441 Y108.963 E2.78047
G1 X169.109 Y108.963 E0.03714
G1 X169.109 Y158.998 E2.78047
G1 X169.724 Y158.998 E0.03419
G1 X169.724 Y156.680 E0.12884
G1 X169.777 Y156.680 E0.00295
G1 X169.777 Y129.829 E1.49209
G1 X170.446 Y129.829 E0.03714
G1 X170.446 Y156.680 E1.49209
G1 X171.114 Y156.680 E0.03714
G1 X171.114 Y129.829 E1.49209
G1 X171.782 Y129.829 E0.03714
M73 Q0 S215
G1 X171.782 Y156.680 E1.49209
M73 P0 R213
G1 X172.043 Y156.680 E0.01447
G1 X172.043 Y154.361 E0.12884
G1 X172.451 Y154.361 E0.02267
G1 X172.451 Y132.148 E1.23441
G1 X173.119 Y132.148 E0.03714
G1 X173.119 Y154.361 E1.23441
G1 X173.787 Y154.361 E0.03714
G1 X173.787 Y132.148 E1.23441
G1 X174.456 Y132.148 E0.03714
G1 X174.456 Y154.361 E1.23441
G1 X175.124 Y154.361 E0.03714
G1 X175.124 Y132.148 E1.23441
G1 X175.792 Y132.148 E0.03714
G1 X175.792 Y154.361 E1.23441
G1 X176.460 Y154.361 E0.03714
G1 X176.460 Y132.148 E1.23441
G1 X177.129 Y132.148 E0.03714
G1 X177.129 Y154.361 E1.23441
G1 X177.797 Y154.361 E0.03714
G1 X177.797 Y132.148 E1.23441
G1 X178.465 Y132.148 E0.03714
G1 X178.465 Y154.361 E1.23441
G1 X179.134 Y154.361 E0.03714
G1 X179.134 Y132.148 E1.23441
G1 X179.802 Y132.148 E0.03714
G1 X179.802 Y154.361 E1.23441
G1 X180.470 Y154.361 E0.03714
G1 X180.470 Y132.148 E1.23441
G1 X181.139 Y132.148 E0.03714
G1 X181.139 Y154.511 E1.24277
G1 F8640.000
G1 X181.139 Y148.751 E-1.33000
G1 E-0.07000 F2100.00000
G1 Z0.600 F10800.000
G1 X164.181 Y165.136
G1 Z0.400
G1 E1.40000 F2100.00000
G1 F1200.000
G1 X73.119 Y165.136 E5.06036
G1 X73.119 Y57.564 E5.97784
G1 X164.181 Y57.564 E5.06036
G1 X164.181 Y165.076 E5.97450
G1 X164.515 Y165.470 F10800.000
G1 F1200.000
G1 X72.785 Y165.470 E5.09750
G1 X72.785 Y57.230 E6.01498
G1 X164.515 Y57.230 E5.09750
G1 X164.515 Y165.410 E6.01164
G1 X164.849 Y165.804 F10800.000
G1 F1200.000
G1 X72.451 Y165.804 E5.13464
M73 Q1 S214
M73 P1 R212
G1 X72.451 Y56.896 E6.05212
G1 X164.849 Y56.896 E5.13464
G1 X164.849 Y165.744 E6.04878
G1 X164.466 Y165.690 F10800.000
G1 F8640.000
G1 X159.089 Y165.748 E-1.33000
G1 E-0.07000 F2100.00000
G1 Z0.600 F10800.000
G1 X164.080 Y58.341
G1 Z0.400
G1 E1.40000 F2100.00000
G1 F1200.000
G1 X163.554 Y57.815 E0.04141
G1 X163.081 Y57.815 E0.02634
G1 X163.930 Y58.664 E0.06683
G1 X163.930 Y59.137 E0.02634
G1 X162.608 Y57.815 E0.10407
G1 X162.134 Y57.815 E0.02634
G1 X163.930 Y59.611 E0.14132
G1 X163.930 Y60.084 E0.02634
G1 X161.661 Y57.815 E0.17857
G1 X161.188 Y57.815 E0.02634
G1 X163.930 Y60.557 E0.21582
G1 X163.930 Y61.030 E0.02634
G1 X160.715 Y57.815 E0.25307
G1 X160.241 Y57.815 E0.02634
G1 X163.930 Y61.504 E0.29031
G1 X163.930 Y61.977 E0.02634
G1 X159.768 Y57.815 E0.32756
G1 X159.295 Y57.815 E0.02634
G1 X163.930 Y62.450 E0.36481
G1 X163.930 Y62.923 E0.02634
G1 X158.822 Y57.815 E0.40206
G1 X158.348 Y57.815 E0.02634
G1 X163.930 Y63.397 E0.43931
G1 X163.930 Y63.870 E0.02634
G1 X157.875 Y57.815 E0.47655
G1 X157.402 Y57.815 E0.02634
G1 X163.930 Y64.343 E0.51380
G1 X163.930 Y64.816 E0.02634
G1 X156.929 Y57.815 E0.55105
G1 X156.455 Y57.815 E0.02634
G1 X163.930 Y65.290 E0.58830
G1 X163.930 Y65.763 E0.02634
G1 X155.982 Y57.815 E0.62555
G1 X155.509 Y57.815 E0.02634
G1 X163.930 Y66.236 E0.66279
G1 X163.930 Y66.710 E0.02634
G1 X155.035 Y57.815 E0.70004
G1 X154.562 Y57.815 E0.02634
