; generated by PrusaSlicer 2.2.0+win64 on 2020-10-12 at 03:49:39 UTC

; 

; external perimeters extrusion width = 0.45mm
; perimeters extrusion width = 0.45mm
; infill extrusion width = 0.45mm
; solid infill extrusion width = 0.45mm
; top infill extrusion width = 0.40mm
; support material extrusion width = 0.40mm
; first layer extrusion width = 0.42mm

M73 P0 R145
M73 Q0 S146
M201 X1000 Y1000 Z1000 E5000 ; sets maximum accelerations, mm/sec^2
M203 X200 Y200 Z12 E120 ; sets maximum feedrates, mm/sec
M204 P1250 R1250 T1250 ; sets acceleration (P, T) and retract acceleration (R), mm/sec^2
M205 X8.00 Y8.00 Z0.40 E4.50 ; sets the jerk limits, mm/sec
M205 S0 T0 ; sets the minimum extruding and travel feed rate, mm/sec
M107
M862.3 P "MK3" ; printer model check
M862.1 P0.4 ; nozzle diameter check
M115 U3.8.1 ; tell printer latest fw version
G90 ; use absolute coordinates
M83 ; extruder relative mode
M104 S230 ; set extruder temp
M140 S85 ; set bed temp
M190 S85 ; wait for bed temp
M109 S230 ; wait for extruder temp
G28 W ; home all without mesh bed level
G80 ; mesh bed leveling
G1 Y-3.0 F1000.0 ; go outside print area
G92 E0.0
G1 X60.0 E9.0 F1000.0 ; intro line
M73 Q0 S146
M73 P0 R145
G1 X100.0 E12.5 F1000.0 ; intro line
G92 E0.0
M221 S95
G21 ; set units to millimeters
G90 ; use absolute coordinates
M83 ; use relative distances for extrusion
M900 K0.08 ; Filament gcode LA 1.5
M900 K45 ; Filament gcode LA 1.0
;BEFORE_LAYER_CHANGE
G92 E0.0
;0.4


G1 E-1.40000 F2100.00000
G1 Z0.200 F10800.000
G1 Z0.400
;AFTER_LAYER_CHANGE
;0.4
G1 Z0.600
G1 X70.059 Y42.554
G1 Z0.400
G1 E1.40000 F2100.00000
M204 S1000
G1 F1200.000
G1 X70.426 Y42.100 E0.03243
G1 X70.895 Y41.753 E0.03243
G1 X71.435 Y41.532 E0.03243
G1 X72.013 Y41.452 E0.03243
G1 X165.263 Y41.452 E5.18197
G1 X165.972 Y41.563 E0.03990
G1 X166.614 Y41.885 E0.03990
G1 X182.571 Y53.796 E1.10652
G1 X182.943 Y54.158 E0.02889
G1 X183.226 Y54.595 E0.02889
G1 X183.406 Y55.082 E0.02889
G1 X183.473 Y55.598 E0.02889
G1 X183.442 Y78.378 E1.26593
G1 X167.542 Y153.998 E4.29414
G1 X167.241 Y154.747 E0.04487
G1 X166.669 Y155.374 E0.04714
G1 X165.908 Y155.756 E0.04735
G1 X104.769 Y172.873 E3.52820
G1 X104.289 Y172.924 E0.02680
G1 X84.879 Y172.924 E1.07865
G1 X84.257 Y172.830 E0.03492
G1 X83.680 Y172.572 E0.03513
G1 X83.058 Y172.007 E0.04673
G1 X70.166 Y154.904 E1.19021
G1 X69.866 Y154.360 E0.03451
G1 X69.720 Y153.757 E0.03451
G1 X69.707 Y43.778 E6.11160
G1 X69.798 Y43.142 E0.03575
G1 X70.034 Y42.608 E0.03242
G1 F8640.000
G1 X70.426 Y42.100 E-0.14815
G1 X70.895 Y41.753 E-0.13473
G1 X71.435 Y41.532 E-0.13473
G1 X72.013 Y41.452 E-0.13473
G1 X75.381 Y41.452 E-0.77764
G1 E-0.07000 F2100.00000
G1 Z0.600 F10800.000
G1 X165.767 Y82.639
G1 Z0.400
G1 E1.40000 F2100.00000
G1 F1200.000
G1 X165.767 Y51.002 E1.75812
G1 X166.436 Y51.002 E0.03714
G1 X166.436 Y82.489 E1.74977
G1 X167.104 Y82.489 E0.03714
G1 X167.104 Y51.002 E1.74977
G1 X167.772 Y51.002 E0.03714
G1 X167.772 Y82.489 E1.74977
G1 X168.441 Y82.489 E0.03714
G1 X168.441 Y51.002 E1.74977
G1 X169.109 Y51.002 E0.03714
G1 X169.109 Y82.489 E1.74977
G1 X169.724 Y82.489 E0.03419
G1 X169.724 Y80.171 E0.12884
G1 X169.777 Y80.171 E0.00295
G1 X169.777 Y53.320 E1.49209
G1 X170.446 Y53.320 E0.03714
G1 X170.446 Y80.171 E1.49209
G1 X171.114 Y80.171 E0.03714
G1 X171.114 Y53.320 E1.49209
G1 X171.782 Y53.320 E0.03714
G1 X171.782 Y80.171 E1.49209
G1 X172.043 Y80.171 E0.01447
G1 X172.043 Y77.852 E0.12884
G1 X172.451 Y77.852 E0.02267
G1 X172.451 Y55.639 E1.23441
G1 X173.119 Y55.639 E0.03714
G1 X173.119 Y77.852 E1.23441
G1 X173.787 Y77.852 E0.03714
G1 X173.787 Y55.639 E1.23441
G1 X174.456 Y55.639 E0.03714
G1 X174.456 Y77.852 E1.23441
G1 X175.124 Y77.852 E0.03714
G1 X175.124 Y55.639 E1.23441
G1 X175.792 Y55.639 E0.03714
G1 X175.792 Y77.852 E1.23441
G1 X176.460 Y77.852 E0.03714
G1 X176.460 Y55.639 E1.23441
G1 X177.129 Y55.639 E0.03714
G1 X177.129 Y77.852 E1.23441
G1 X177.797 Y77.852 E0.03714
G1 X177.797 Y55.639 E1.23441
G1 X178.465 Y55.639 E0.03714
G1 X178.465 Y77.852 E1.23441
G1 X179.134 Y77.852 E0.03714
G1 X179.134 Y55.639 E1.23441
G1 X179.802 Y55.639 E0.03714
G1 X179.802 Y77.852 E1.23441
G1 X180.470 Y77.852 E0.03714
G1 X180.470 Y55.639 E1.23441
G1 X181.139 Y55.639 E0.03714
G1 X181.139 Y78.003 E1.24277
G1 F8640.000
G1 X181.139 Y72.243 E-1.33000
G1 E-0.07000 F2100.00000
G1 Z0.600 F10800.000
G1 X108.960 Y159.148
G1 Z0.400
G1 E1.40000 F2100.00000
G1 F1200.000
G1 X108.960 Y153.906 E0.29132
G1 X108.292 Y153.906 E0.03714
G1 X108.292 Y158.998 E0.28296
M73 Q0 S145
G1 X107.624 Y158.998 E0.03714
G1 X107.624 Y153.906 E0.28296
G1 X106.955 Y153.906 E0.03714
G1 X106.955 Y161.316 E0.41180
M73 P0 R144
G1 X106.287 Y161.316 E0.03714
G1 X106.287 Y153.906 E0.41180
G1 X105.619 Y153.906 E0.03714
G1 X105.619 Y161.316 E0.41180
G1 X104.950 Y161.316 E0.03714
G1 X104.950 Y153.906 E0.41180
G1 X104.282 Y153.906 E0.03714
G1 X104.282 Y170.590 E0.92715
G1 X103.614 Y170.590 E0.03714
G1 X103.614 Y153.906 E0.92715
G1 X102.946 Y153.906 E0.03714
G1 X102.946 Y170.590 E0.92715
G1 X102.277 Y170.590 E0.03714
G1 X102.277 Y153.906 E0.92715
G1 X101.609 Y153.906 E0.03714
G1 X101.609 Y170.590 E0.92715
G1 X100.941 Y170.590 E0.03714
G1 X100.941 Y153.906 E0.92715
G1 X100.272 Y153.906 E0.03714
G1 X100.272 Y170.590 E0.92715
G1 X99.604 Y170.590 E0.03714
G1 X99.604 Y153.906 E0.92715
G1 X98.936 Y153.906 E0.03714
G1 X98.936 Y170.590 E0.92715
G1 X98.267 Y170.590 E0.03714
G1 X98.267 Y153.906 E0.92715
G1 X97.599 Y153.906 E0.03714
G1 X97.599 Y170.590 E0.92715
G1 X96.931 Y170.590 E0.03714
G1 X96.931 Y153.906 E0.92715
G1 X96.262 Y153.906 E0.03714
G1 X96.262 Y170.590 E0.92715
G1 X95.594 Y170.590 E0.03714
G1 X95.594 Y153.906 E0.92715
G1 X94.926 Y153.906 E0.03714
G1 X94.926 Y170.590 E0.92715
G1 X94.257 Y170.590 E0.03714
G1 X94.257 Y153.906 E0.92715
G1 X93.589 Y153.906 E0.03714
G1 X93.589 Y170.590 E0.92715
G1 X92.921 Y170.590 E0.03714
G1 X92.921 Y153.906 E0.92715
G1 X92.252 Y153.906 E0.03714
G1 X92.252 Y170.590 E0.92715
G1 X91.584 Y170.590 E0.03714
G1 X91.584 Y153.906 E0.92715
G1 X90.916 Y153.906 E0.03714
G1 X90.916 Y170.590 E0.92715
G1 X90.247 Y170.590 E0.03714
G1 X90.247 Y153.906 E0.92715
G1 X89.579 Y153.906 E0.03714
G1 X89.579 Y170.590 E0.92715
G1 X88.911 Y170.590 E0.03714
G1 X88.911 Y153.906 E0.92715
G1 X88.243 Y153.906 E0.03714
G1 X88.243 Y170.590 E0.92715
G1 X87.574 Y170.590 E0.03714
G1 X87.574 Y153.906 E0.92715
G1 X86.906 Y153.906 E0.03714
G1 X86.906 Y170.590 E0.92715
G1 X86.238 Y170.590 E0.03714
G1 X86.238 Y153.906 E0.92715
G1 X85.569 Y153.906 E0.03714
G1 X85.569 Y170.590 E0.92715
G1 X84.913 Y170.590 E0.03648
G1 X84.901 Y153.906 E0.92715
G1 X84.233 Y153.906 E0.03714
G1 X84.233 Y161.316 E0.41180
G1 X83.564 Y161.316 E0.03714
G1 X83.564 Y153.906 E0.41180
G1 X82.896 Y153.906 E0.03714
G1 X82.896 Y161.316 E0.41180
G1 X82.594 Y161.316 E0.01677
G1 X82.594 Y158.998 E0.12884
G1 X82.228 Y158.998 E0.02037
G1 X82.228 Y153.906 E0.28296
G1 X81.559 Y153.906 E0.03714
G1 X81.559 Y158.998 E0.28296
G1 X80.891 Y158.998 E0.03714
G1 X80.891 Y153.756 E0.29132
G1 F8640.000
G1 X80.891 Y158.998 E-1.21045
G1 X81.409 Y158.998 E-0.11955
G1 E-0.07000 F2100.00000
G1 Z0.600 F10800.000
G1 X85.695 Y118.454
G1 Z0.400
G1 E1.40000 F2100.00000
G1 F1200.000
G1 X85.695 Y107.605 E0.60291
G1 X151.605 Y107.605 E3.66271
G1 X151.605 Y118.454 E0.60291
G1 X85.755 Y118.454 E3.65938
G1 X86.029 Y118.120 F10800.000
G1 F1200.000
G1 X86.029 Y107.939 E0.56577
G1 X151.271 Y107.939 E3.62557
G1 X151.271 Y118.120 E0.56577
G1 X86.089 Y118.120 E3.62224
G1 X86.363 Y117.786 F10800.000
G1 F1200.000
G1 X86.363 Y108.273 E0.52863
G1 X150.937 Y108.273 E3.58844
G1 X150.937 Y117.786 E0.52863
G1 X86.423 Y117.786 E3.58510
G1 X85.963 Y117.805 F10800.000
G1 F8640.000
G1 X86.387 Y112.026 E-1.33000
G1 E-0.07000 F2100.00000
G1 Z0.600 F10800.000
G1 X85.695 Y127.001
G1 Z0.400
G1 E1.40000 F2100.00000
G1 F1200.000
G1 X151.605 Y127.001 E3.66271
G1 X151.605 Y139.860 E0.71463
G1 X85.695 Y139.860 E3.66271
M73 Q1 S144
M73 P1 R143
G1 X85.695 Y127.061 E0.71130
G1 X86.029 Y127.335 F10800.000
G1 F1200.000
G1 X151.271 Y127.335 E3.62557
G1 X151.271 Y139.526 E0.67749
G1 X86.029 Y139.526 E3.62557
G1 X86.029 Y127.395 E0.67416
G1 X86.363 Y127.669 F10800.000
G1 F1200.000
G1 X150.937 Y127.669 E3.58844
G1 X150.937 Y139.192 E0.64035
G1 X86.363 Y139.192 E3.58844
G1 X86.363 Y127.729 E0.63702
G1 X86.184 Y127.311 F10800.000
G1 F8640.000
G1 X92.123 Y127.724 E-1.33000
G1 E-0.07000 F2100.00000
G1 Z0.600 F10800.000
G1 X85.695 Y77.506
G1 Z0.400
G1 E1.40000 F2100.00000
G1 F1200.000
G1 X151.605 Y77.506 E3.66271
G1 X151.605 Y89.695 E0.67739
G1 X85.695 Y89.695 E3.66271
G1 X85.695 Y77.566 E0.67405
G1 X86.029 Y77.840 F10800.000
G1 F1200.000
G1 X151.271 Y77.840 E3.62557
G1 X151.271 Y89.361 E0.64025
G1 X86.029 Y89.361 E3.62557
G1 X86.029 Y77.900 E0.63692
G1 X86.363 Y78.174 F10800.000
G1 F1200.000
G1 X150.937 Y78.174 E3.58844
G1 X150.937 Y89.027 E0.60311
G1 X86.363 Y89.027 E3.58844
G1 X86.363 Y78.234 E0.59978
G1 X86.183 Y77.817 F10800.000
G1 F8640.000
G1 X92.123 Y78.229 E-1.33000
G1 E-0.07000 F2100.00000
G1 Z0.600 F10800.000
G1 X85.695 Y57.440
G1 Z0.400
G1 E1.40000 F2100.00000
G1 F1200.000
G1 X151.605 Y57.440 E3.66271
G1 X151.605 Y69.629 E0.67739
G1 X85.695 Y69.629 E3.66271
G1 X85.695 Y57.500 E0.67405
G1 X86.029 Y57.774 F10800.000
G1 F1200.000
G1 X151.271 Y57.774 E3.62557
G1 X151.271 Y69.295 E0.64025
G1 X86.029 Y69.295 E3.62557
G1 X86.029 Y57.834 E0.63692
G1 X86.363 Y58.108 F10800.000
G1 F1200.000
G1 X150.937 Y58.108 E3.58844
G1 X150.937 Y68.961 E0.60311
M73 Q2 S143
G1 X86.363 Y68.961 E3.58844
M73 P2 R142
G1 X86.363 Y58.168 E0.59978
G1 X86.183 Y57.751 F10800.000
G1 F8640.000
G1 X92.123 Y58.163 E-1.33000
G1 E-0.07000 F2100.00000
G1 Z0.600 F10800.000
G1 X73.119 Y44.864
G1 Z0.400
G1 E1.40000 F2100.00000
G1 F1200.000
G1 X164.181 Y44.864 E5.06036
G1 X164.181 Y152.436 E5.97784
G1 X73.119 Y152.436 E5.06036
G1 X73.119 Y44.924 E5.97450
G1 X72.785 Y44.530 F10800.000
G1 F1200.000
G1 X164.515 Y44.530 E5.09750
G1 X164.515 Y152.770 E6.01498
G1 X72.785 Y152.770 E5.09750
G1 X72.785 Y44.590 E6.01164
G1 X72.451 Y44.196 F10800.000
G1 F1200.000
G1 X164.849 Y44.196 E5.13464
G1 X164.849 Y153.104 E6.05212
G1 X72.451 Y153.104 E5.13464
G1 X72.451 Y44.256 E6.04878
M73 Q2 S142
M73 P2 R141
G1 X72.834 Y44.310 F10800.000
G1 F8640.000
G1 X78.211 Y44.252 E-1.33000
G1 E-0.07000 F2100.00000
G1 Z0.600 F10800.000
G1 X73.220 Y57.952
G1 Z0.400
G1 E1.40000 F2100.00000
G1 F1200.000
G1 X92.523 Y77.255 E1.51923
G1 X92.049 Y77.255 E0.02634
G1 X73.370 Y58.576 E1.47015
G1 X73.370 Y59.049 E0.02634
G1 X91.576 Y77.255 E1.43290
G1 X91.103 Y77.255 E0.02634
G1 X73.370 Y59.522 E1.39566
G1 X73.370 Y59.995 E0.02634
G1 X90.630 Y77.255 E1.35841
G1 X90.156 Y77.255 E0.02634
G1 X73.370 Y60.469 E1.32116
G1 X73.370 Y60.942 E0.02634
G1 X89.683 Y77.255 E1.28391
G1 X89.210 Y77.255 E0.02634
G1 X73.370 Y61.415 E1.24666
G1 X73.370 Y61.889 E0.02634
G1 X88.736 Y77.255 E1.20942
G1 X88.263 Y77.255 E0.02634
G1 X73.370 Y62.362 E1.17217
G1 X73.370 Y62.835 E0.02634
G1 X87.790 Y77.255 E1.13492
G1 X87.317 Y77.255 E0.02634
G1 X73.370 Y63.308 E1.09767
G1 X73.370 Y63.782 E0.02634
G1 X86.843 Y77.255 E1.06042
G1 X86.370 Y77.255 E0.02634
G1 X73.370 Y64.255 E1.02318
G1 X73.370 Y64.728 E0.02634
G1 X85.897 Y77.255 E0.98593
G1 X85.444 Y77.255 E0.02520
G1 X85.444 Y77.276 E0.00114
G1 X73.370 Y65.201 E0.95029
G1 X73.370 Y65.675 E0.02634
G1 X85.444 Y77.749 E0.95029
G1 X85.444 Y78.222 E0.02634
G1 X73.370 Y66.148 E0.95029
G1 X73.370 Y66.621 E0.02634
G1 X85.444 Y78.695 E0.95029
G1 X85.444 Y79.169 E0.02634
G1 X73.370 Y67.094 E0.95029
G1 X73.370 Y67.568 E0.02634
G1 X85.444 Y79.642 E0.95029
G1 X85.444 Y80.115 E0.02634
G1 X73.370 Y68.041 E0.95029
G1 X73.370 Y68.514 E0.02634
G1 X85.444 Y80.588 E0.95029
G1 X85.444 Y81.062 E0.02634
G1 X73.370 Y68.987 E0.95029
G1 X73.370 Y69.461 E0.02634
G1 X85.444 Y81.535 E0.95029
G1 X85.444 Y82.008 E0.02634
G1 X73.370 Y69.934 E0.95029
G1 X73.370 Y70.407 E0.02634
G1 X85.444 Y82.481 E0.95029
G1 X85.444 Y82.955 E0.02634
G1 X73.370 Y70.881 E0.95029
G1 X73.370 Y71.354 E0.02634
G1 X85.444 Y83.428 E0.95029
G1 X85.444 Y83.901 E0.02634
G1 X73.370 Y71.827 E0.95029
G1 X73.370 Y72.300 E0.02634
G1 X85.444 Y84.374 E0.95029
G1 X85.444 Y84.848 E0.02634
G1 X73.370 Y72.774 E0.95029
G1 X73.370 Y73.247 E0.02634
G1 X85.444 Y85.321 E0.95029
G1 X85.444 Y85.794 E0.02634
G1 X73.370 Y73.720 E0.95029
G1 X73.370 Y74.193 E0.02634
G1 X85.444 Y86.268 E0.95029
G1 X85.444 Y86.741 E0.02634
G1 X73.370 Y74.667 E0.95029
G1 X73.370 Y75.140 E0.02634
G1 X85.444 Y87.214 E0.95029
G1 X85.444 Y87.687 E0.02634
G1 X73.370 Y75.613 E0.95029
G1 X73.370 Y76.086 E0.02634
G1 X85.444 Y88.161 E0.95029
G1 X85.444 Y88.634 E0.02634
G1 X73.370 Y76.560 E0.95029
G1 X73.370 Y77.033 E0.02634
G1 X85.444 Y89.107 E0.95029
G1 X85.444 Y89.580 E0.02634
G1 X73.370 Y77.506 E0.95029
G1 X73.370 Y77.980 E0.02634
G1 X102.744 Y107.354 E2.31190
G1 X103.218 Y107.354 E0.02634
G1 X85.810 Y89.946 E1.37010
G1 X86.283 Y89.946 E0.02634
G1 X103.691 Y107.354 E1.37010
G1 X104.164 Y107.354 E0.02634
G1 X86.756 Y89.946 E1.37010
G1 X87.229 Y89.946 E0.02634
G1 X104.638 Y107.354 E1.37010
G1 X105.111 Y107.354 E0.02634
G1 X87.703 Y89.946 E1.37010
G1 X88.176 Y89.946 E0.02634
G1 X105.584 Y107.354 E1.37010
G1 X106.057 Y107.354 E0.02634
G1 X88.649 Y89.946 E1.37010
G1 X89.122 Y89.946 E0.02634
G1 X106.531 Y107.354 E1.37010
G1 X107.004 Y107.354 E0.02634
G1 X89.596 Y89.946 E1.37010
G1 X90.069 Y89.946 E0.02634
G1 X107.477 Y107.354 E1.37010
G1 X107.950 Y107.354 E0.02634
G1 X90.542 Y89.946 E1.37010
G1 X91.016 Y89.946 E0.02634
G1 X108.424 Y107.354 E1.37010
G1 X108.897 Y107.354 E0.02634
G1 X91.489 Y89.946 E1.37010
M73 Q3 S141
M73 P3 R140
G1 X91.962 Y89.946 E0.02634
G1 X109.370 Y107.354 E1.37010
G1 X109.843 Y107.354 E0.02634
G1 X92.435 Y89.946 E1.37010
G1 X92.909 Y89.946 E0.02634
G1 X110.317 Y107.354 E1.37010
G1 X110.790 Y107.354 E0.02634
G1 X93.382 Y89.946 E1.37010
G1 X93.855 Y89.946 E0.02634
G1 X111.263 Y107.354 E1.37010
G1 X111.737 Y107.354 E0.02634
G1 X94.328 Y89.946 E1.37010
G1 X94.802 Y89.946 E0.02634
G1 X112.210 Y107.354 E1.37010
G1 X112.683 Y107.354 E0.02634
G1 X95.275 Y89.946 E1.37010
G1 X95.748 Y89.946 E0.02634
G1 X113.156 Y107.354 E1.37010
G1 X113.630 Y107.354 E0.02634
G1 X96.221 Y89.946 E1.37010
G1 X96.695 Y89.946 E0.02634
G1 X114.103 Y107.354 E1.37010
G1 X114.576 Y107.354 E0.02634
G1 X97.168 Y89.946 E1.37010
G1 X97.641 Y89.946 E0.02634
G1 X115.049 Y107.354 E1.37010
G1 X115.523 Y107.354 E0.02634
G1 X98.114 Y89.946 E1.37010
G1 X98.588 Y89.946 E0.02634
G1 X115.996 Y107.354 E1.37010
G1 X116.469 Y107.354 E0.02634
G1 X99.061 Y89.946 E1.37010
G1 X99.534 Y89.946 E0.02634
G1 X116.942 Y107.354 E1.37010
G1 X117.416 Y107.354 E0.02634
G1 X100.008 Y89.946 E1.37010
G1 X100.481 Y89.946 E0.02634
G1 X117.889 Y107.354 E1.37010
G1 X118.362 Y107.354 E0.02634
G1 X100.954 Y89.946 E1.37010
G1 X101.427 Y89.946 E0.02634
G1 X118.835 Y107.354 E1.37010
G1 X119.309 Y107.354 E0.02634
G1 X101.901 Y89.946 E1.37010
G1 X102.374 Y89.946 E0.02634
G1 X119.782 Y107.354 E1.37010
G1 X120.255 Y107.354 E0.02634
G1 X102.847 Y89.946 E1.37010
G1 X103.320 Y89.946 E0.02634
G1 X120.729 Y107.354 E1.37010
G1 X121.202 Y107.354 E0.02634
G1 X103.794 Y89.946 E1.37010
G1 X104.267 Y89.946 E0.02634
G1 X121.675 Y107.354 E1.37010
G1 X122.148 Y107.354 E0.02634
G1 X104.740 Y89.946 E1.37010
G1 X105.213 Y89.946 E0.02634
G1 X122.622 Y107.354 E1.37010
G1 X123.095 Y107.354 E0.02634
G1 X105.687 Y89.946 E1.37010
G1 X106.160 Y89.946 E0.02634
G1 X123.568 Y107.354 E1.37010
G1 X124.041 Y107.354 E0.02634
G1 X106.633 Y89.946 E1.37010
G1 X107.107 Y89.946 E0.02634
G1 X124.515 Y107.354 E1.37010
G1 X124.988 Y107.354 E0.02634
G1 X107.580 Y89.946 E1.37010
G1 X108.053 Y89.946 E0.02634
G1 X125.461 Y107.354 E1.37010
G1 X125.934 Y107.354 E0.02634
G1 X108.526 Y89.946 E1.37010
G1 X109.000 Y89.946 E0.02634
G1 X126.408 Y107.354 E1.37010
G1 X126.881 Y107.354 E0.02634
G1 X109.473 Y89.946 E1.37010
G1 X109.946 Y89.946 E0.02634
G1 X127.354 Y107.354 E1.37010
G1 X127.828 Y107.354 E0.02634
G1 X110.419 Y89.946 E1.37010
G1 X110.893 Y89.946 E0.02634
G1 X128.301 Y107.354 E1.37010
G1 X128.774 Y107.354 E0.02634
G1 X111.366 Y89.946 E1.37010
G1 X111.839 Y89.946 E0.02634
